X:1
T:H. J. Storer
T:Brightly Gleams
%%score { ( 1 2 ) | ( 3 4 ) }
L:1/8
M:4/4
K:Bb
V:1 treble 
V:2 treble 
V:3 bass 
V:4 bass 
V:1
 F2 B2 A2 c2 | c4 B4 | F2 f2 f2 ed | c8 | c2 e2 d2 c2 | c4 B4 | A2 G2 B2 AG | (^F4 G2 A2) | %8
 B2 d2 c2 A2 | B4 B4 | B2 d2 c2 d2 | e8 | d2 d2 c2 B2 | B4 A4 | B2 G2 GA B2 | c4 f4- | f2 B2 BAGA | %17
 c4 B4 | e2 d2 c2 B2 | (A4 G2 F2) | F2 B2 c2 d2 | (f2 e2) (d2 c2) | B2 G2 F2 c2 | B8 | B4 B4 |] %25
V:2
 F2 F2 F2 F2 | F4 F4 | F2 B2 G2 GF | E8 | G2 G2 ^F2 A2 | A4 G4 | D2 D2 D2 ^C2 | D8 | D2 G2 G2 ^F2 | %9
 G4 _A4 | _A2 A2 A2 A2 | G8 | G2 G2 G2 G2 | F4 F4 | F2 F2 =E2 D2 | (C2 F2 A2 c2) | B2 B2 F2 F2 | %17
 F4 F4 | E2 F2 G2 G2 | (F4 E4) | D2 F2 F2 _A2 | G4 G4 | G2 D2 D2 E2 | D8 | E4 D4 |] %25
V:3
 D2 F,2 C2 A,2 | A,4 B,4 | D2 D2 =B,2 ^A,B, | C8 | E2 C2 D2 D2 | E4 D4 | B,2 B,2 G,2 A,2 | %7
 (A,4 D2 C2) | B,2 B,2 E2 D2 | D4 D4 | D2 D2 E2 F2 | E8 | B,2 B,2 C2 C2 | D4 C4 | %14
 B,2 B,2 B,A, G,2 | (A,4 E4) | D2 D2 E2 E2 | D4 D4 | B,2 B,2 C2 C2 | C8 | B,2 D2 C2 B,2 | %21
 (=B,2 C2) (F2 E2) | D2 G,2 B,2 A,2 | B,8 | G,4 F,4 |] %25
V:4
 B,,2 D,2 D,2 E,2 | E,4 D,4 | B,,4 G,4 | C,2 G,2 (C2 B,2) | A,2 A,2 D,2 =E,^F, | ^F,4 G,4 | %6
 F,2 =E,2 E,2 A,,2 | (D,4 =E,2 ^F,2) | G,2 G,2 A,2 D,2 | G,4 F,4 | B,,2 B,,2 B,,2 B,,2 | E,8 | %12
 =E,2 E,2 E,2 E,2 | F,4 F,4 | D,2 _D,2 C,2 C,2 | F,8 | B,4 F,4 | B,,2 F,2 B,2 A,2 | %18
 G,2 F,2 =E,2 E,2 | (F,4 G,2 A,2) | B,2 B,2 A,2 B,2 | E,4 E,4 | =E,2 E,2 F,2 F,2 | B,,8 | %24
 E,4 B,,4 |] %25

